; generated by PrusaSlicer 2.2.0-alpha2+linux-x64 on 2020-01-29 at 13:22:43 UTC

; 

; external perimeters extrusion width = 0.45mm
; perimeters extrusion width = 0.45mm
; infill extrusion width = 0.45mm
; solid infill extrusion width = 0.45mm
; top infill extrusion width = 0.40mm
; support material extrusion width = 0.35mm
; first layer extrusion width = 0.42mm

M73 P0 R130
M73 Q0 S131
M201 X1000 Y1000 Z1000 E5000 ; sets maximum accelerations, mm/sec^2
M203 X200 Y200 Z12 E120 ; sets maximum feedrates, mm/sec
M204 P1250 R1250 T1250 ; sets acceleration (P, T) and retract acceleration (R), mm/sec^2
M205 X8.00 Y8.00 Z0.40 E1.50 ; sets the jerk limits, mm/sec
M205 S0 T0 ; sets the minimum extruding and travel feed rate, mm/sec
M107
M862.3 P "MK3S" ; printer model check
M862.1 P0.4 ; nozzle diameter check
M115 U3.8.1 ; tell printer latest fw version
G90 ; use absolute coordinates
M83 ; extruder relative mode
M104 S215 ; set extruder temp
M140 S60 ; set bed temp
M190 S60 ; wait for bed temp
M109 S215 ; wait for extruder temp
G28 W ; home all without mesh bed level
G80 ; mesh bed leveling
G1 Y-3.0 F1000.0 ; go outside print area
G92 E0.0
G1 X60.0 E9.0 F1000.0 ; intro line
M73 Q0 S131
M73 P0 R130
G1 X100.0 E12.5 F1000.0 ; intro line
G92 E0.0
M221 S95
G21 ; set units to millimeters
G90 ; use absolute coordinates
M83 ; use relative distances for extrusion
M900 K30 ; Filament gcode
;BEFORE_LAYER_CHANGE
G92 E0.0
;0.2


G1 E-0.80000 F2100.00000
G1 Z0.600 F10800.000
;AFTER_LAYER_CHANGE
;0.2
G1 X91.353 Y69.602
G1 Z0.200
G1 E0.80000 F2100.00000
M204 S1000
G1 F1200.000
G1 X92.077 Y69.432 E0.02331
G1 X115.253 Y69.426 E0.72667
G1 X116.183 Y69.616 E0.02977
G1 X116.965 Y70.155 E0.02977
G1 X117.275 Y70.554 E0.01585
G1 X117.599 Y71.182 E0.02215
G1 X117.950 Y72.227 E0.03457
G1 X125.800 Y119.507 E1.50275
G1 X125.821 Y146.695 E0.85246
G1 X125.649 Y147.572 E0.02802
G1 X125.303 Y148.166 E0.02154
G1 X124.801 Y148.635 E0.02154
G1 X124.186 Y148.942 E0.02154
G1 X123.510 Y149.060 E0.02154
G1 X96.275 Y149.061 E0.85392
G1 X84.164 Y148.891 E0.37978
G1 X83.340 Y148.720 E0.02637
G1 X82.758 Y148.383 E0.02107
G1 X82.292 Y147.894 E0.02119
G1 X81.982 Y147.294 E0.02119
G1 X81.854 Y146.634 E0.02107
G1 X81.859 Y119.453 E0.85224
G1 X89.438 Y72.839 E1.48076
G1 X89.844 Y71.324 E0.04915
G1 X90.262 Y70.503 E0.02892
G1 X90.714 Y69.990 E0.02142
G1 X91.302 Y69.633 E0.02155
G1 F8640.000
G1 X92.077 Y69.432 E-0.18490
G1 X94.567 Y69.431 E-0.57510
G1 E-0.04000 F2100.00000
G1 Z0.800 F10800.000
G1 X108.800 Y149.249
G1 Z0.200
G1 E0.80000 F2100.00000
G1 F1200.000
G1 X108.936 Y149.404 E0.00644
G1 X109.871 Y149.991 E0.03463
G1 X110.994 Y150.285 E0.03639
G1 X123.002 Y150.285 E0.37653
G1 X123.231 Y150.257 E0.00723
G1 X123.988 Y150.266 E0.02371
G1 X124.675 Y150.148 E0.02188
G1 X125.720 Y149.630 E0.03657
G1 X126.455 Y148.923 E0.03198
G1 X126.962 Y148.095 E0.03043
G1 X127.215 Y147.122 E0.03152
G1 X127.194 Y119.286 E0.87277
G1 X126.942 Y118.366 E0.02991
G1 X126.491 Y117.576 E0.02853
G1 X125.910 Y116.953 E0.02670
G1 X125.520 Y116.668 E0.01515
G1 F8640.000
G1 X125.910 Y116.953 E-0.11160
G1 X126.491 Y117.576 E-0.19660
G1 X126.942 Y118.366 E-0.21012
G1 X127.194 Y119.286 E-0.22028
G1 X127.195 Y119.379 E-0.02141
G1 E-0.04000 F2100.00000
G1 Z0.800 F10800.000
G1 X82.132 Y116.601
G1 Z0.200
G1 E0.80000 F2100.00000
G1 F1200.000
G1 X82.008 Y116.665 E0.00437
G1 X81.240 Y117.384 E0.03299
G1 X80.779 Y118.085 E0.02631
G1 X80.457 Y119.213 E0.03677
G1 X80.457 Y146.815 E0.86543
G1 X80.599 Y147.616 E0.02553
G1 X81.084 Y148.628 E0.03517
G1 X81.868 Y149.472 E0.03612
G1 X82.771 Y150.012 E0.03301
G1 X83.843 Y150.285 E0.03468
G1 X95.853 Y150.285 E0.37655
G1 X96.091 Y150.256 E0.00754
G1 X97.039 Y150.248 E0.02971
G1 X97.843 Y150.033 E0.02610
G1 X98.716 Y149.517 E0.03180
G1 X98.970 Y149.249 E0.01156
G1 F8640.000
G1 X98.716 Y149.517 E-0.08510
G1 X97.843 Y150.033 E-0.23419
G1 X97.039 Y150.248 E-0.19221
G1 X96.091 Y150.256 E-0.21879
G1 X95.964 Y150.272 E-0.02971
G1 E-0.04000 F2100.00000
G1 Z0.800 F10800.000
G1 X108.469 Y148.872
G1 Z0.200
G1 E0.80000 F2100.00000
G1 F1200.000
G1 X108.168 Y148.529 E0.01430
G1 X107.746 Y147.608 E0.03179
G1 X107.606 Y146.812 E0.02532
G1 X107.606 Y119.213 E0.86536
G1 X107.929 Y118.085 E0.03677
G1 X108.389 Y117.384 E0.02631
G1 X109.158 Y116.665 E0.03299
G1 X109.926 Y116.262 E0.02720
G1 X110.720 Y116.079 E0.02553
G1 X111.589 Y116.078 E0.02727
G1 X111.825 Y116.050 E0.00744
G1 X112.370 Y116.054 E0.01710
G1 X112.370 Y113.105 E0.09247
G1 X95.135 Y113.105 E0.54041
G1 X95.135 Y116.053 E0.09243
G1 X96.956 Y116.091 E0.05711
G1 X98.180 Y116.529 E0.04075
G1 X98.760 Y116.953 E0.02256
G1 X99.342 Y117.576 E0.02670
G1 X99.793 Y118.366 E0.02853
G1 X100.045 Y119.286 E0.02991
G1 X100.065 Y147.053 E0.87062
G1 X99.932 Y147.773 E0.02295
G1 X99.447 Y148.744 E0.03405
G1 X99.326 Y148.872 E0.00552
G1 F8640.000
G1 X99.447 Y148.744 E-0.04065
G1 X99.932 Y147.773 E-0.25073
G1 X100.065 Y147.053 E-0.16904
G1 X100.064 Y145.756 E-0.29957
G1 E-0.04000 F2100.00000
G1 Z0.800 F10800.000
G1 X119.135 Y80.514
G1 Z0.200
G1 E0.80000 F2100.00000
G1 F1200.000
G1 X119.135 Y97.714 E0.53927
G1 X119.171 Y98.032 E0.01004
G1 X119.319 Y98.278 E0.00900
G1 X119.524 Y98.412 E0.00769
G1 X120.294 Y98.715 E0.02594
G1 X121.060 Y99.280 E0.02985
G1 X121.752 Y100.218 E0.03654
G1 X122.108 Y101.309 E0.03599
G1 X122.134 Y116.056 E0.46238
G1 X124.105 Y116.090 E0.06180
G1 X125.101 Y116.447 E0.03316
G1 F8640.000
G1 X124.105 Y116.090 E-0.24423
G1 X122.134 Y116.056 E-0.45514
G1 X122.134 Y115.793 E-0.06063
G1 E-0.04000 F2100.00000
G1 Z0.800 F10800.000
G1 X88.370 Y80.582
G1 Z0.200
G1 E0.80000 F2100.00000
G1 F1200.000
G1 X88.370 Y97.714 E0.53718
G1 X88.334 Y98.031 E0.01001
G1 X88.186 Y98.278 E0.00901
G1 X87.981 Y98.412 E0.00768
G1 X87.211 Y98.715 E0.02595
G1 X86.445 Y99.280 E0.02985
G1 X85.753 Y100.218 E0.03654
G1 X85.397 Y101.309 E0.03599
G1 X85.371 Y116.054 E0.46231
G1 X84.673 Y116.050 E0.02187
G1 X84.439 Y116.078 E0.00738
G1 X83.570 Y116.079 E0.02727
G1 X82.776 Y116.262 E0.02553
G1 X82.549 Y116.381 E0.00804
G1 F8640.000
G1 X82.776 Y116.262 E-0.05921
G1 X83.570 Y116.079 E-0.18803
G1 X84.439 Y116.078 E-0.20079
G1 X84.673 Y116.050 E-0.05437
G1 X85.371 Y116.054 E-0.16108
G1 X85.372 Y115.636 E-0.09652
G1 E-0.04000 F2100.00000
G1 Z0.800 F10800.000
G1 X90.788 Y69.725
G1 Z0.200
G1 E0.80000 F2100.00000
G1 F1200.000
G1 X90.388 Y69.850 E0.01314
G1 X89.473 Y70.519 E0.03555
G1 X89.151 Y70.890 E0.01540
G1 X88.633 Y71.828 E0.03359
G1 X88.429 Y72.798 E0.03108
G1 X88.370 Y73.677 E0.02761
G1 X88.370 Y78.232 E0.14283
G1 F8640.000
G1 X88.370 Y74.941 E-0.76000
G1 E-0.04000 F2100.00000
G1 Z0.800 F10800.000
G1 X119.135 Y78.212
G1 Z0.200
G1 E0.80000 F2100.00000
G1 F1200.000
G1 X119.135 Y73.670 E0.14242
G1 X119.077 Y72.810 E0.02703
G1 X118.871 Y71.825 E0.03155
G1 X118.352 Y70.889 E0.03356
G1 X118.120 Y70.602 E0.01158
G1 X117.157 Y69.871 E0.03790
G1 X116.643 Y69.704 E0.01694
G1 F8640.000
G1 X117.157 Y69.871 E-0.12476
G1 X118.120 Y70.602 E-0.27908
G1 X118.352 Y70.889 E-0.08527
G1 X118.871 Y71.825 E-0.24712
G1 X118.892 Y71.926 E-0.02377
G1 E-0.04000 F2100.00000
G1 Z0.800 F10800.000
G1 X109.388 Y149.249
G1 Z0.200
G1 E0.80000 F2100.00000
G1 F1200.000
G1 X110.044 Y149.655 E0.02420
G1 X111.017 Y149.908 E0.03152
G1 X122.990 Y149.908 E0.37539
G1 X123.209 Y149.880 E0.00693
G1 X123.976 Y149.889 E0.02406
G1 X124.536 Y149.797 E0.01779
G1 X125.482 Y149.336 E0.03300
G1 X126.148 Y148.702 E0.02884
G1 X126.605 Y147.969 E0.02706
G1 X126.838 Y147.097 E0.02831
G1 X126.824 Y119.361 E0.86962
G1 X126.585 Y118.490 E0.02834
G1 X126.177 Y117.784 E0.02555
G1 X125.607 Y117.196 E0.02567
G1 F8640.000
G1 X126.177 Y117.784 E-0.18905
G1 X126.585 Y118.490 E-0.18819
G1 X126.824 Y119.361 E-0.20869
G1 X126.825 Y120.115 E-0.17407
G1 E-0.04000 F2100.00000
G1 Z0.800 F10800.000
G1 X82.044 Y117.141
G1 Z0.200
G1 E0.80000 F2100.00000
G1 F1200.000
G1 X81.516 Y117.641 E0.02279
G1 X81.111 Y118.266 E0.02335
G1 X80.834 Y119.239 E0.03172
G1 X80.834 Y146.799 E0.86412
G1 X80.952 Y147.480 E0.02167
G1 X81.381 Y148.395 E0.03171
G1 X82.087 Y149.164 E0.03274
G1 X82.894 Y149.655 E0.02960
G1 X83.868 Y149.908 E0.03155
G1 X95.840 Y149.908 E0.37539
G1 X96.067 Y149.879 E0.00716
G1 X96.969 Y149.877 E0.02829
G1 X97.677 Y149.694 E0.02295
G1 X98.442 Y149.249 E0.02772
G1 F8640.000
G1 X97.677 Y149.694 E-0.20414
G1 X96.969 Y149.877 E-0.16900
G1 X96.067 Y149.879 E-0.20831
G1 X95.840 Y149.908 E-0.05276
G1 X95.295 Y149.908 E-0.12579
G1 E-0.04000 F2100.00000
G1 Z0.800 F10800.000
G1 X108.967 Y148.872
G1 Z0.200
G1 E0.80000 F2100.00000
G1 F1200.000
G1 X108.499 Y148.346 E0.02207
G1 X108.099 Y147.473 E0.03010
G1 X107.983 Y146.797 E0.02152
G1 X107.983 Y119.239 E0.86406
G1 X108.260 Y118.266 E0.03172
G1 X108.666 Y117.641 E0.02335
G1 X109.357 Y116.987 E0.02984
G1 X110.079 Y116.608 E0.02556
G1 X110.780 Y116.452 E0.02252
G1 X111.613 Y116.455 E0.02611
G1 X111.835 Y116.427 E0.00704
G1 X112.747 Y116.434 E0.02860
G1 X112.747 Y112.728 E0.11621
G1 X94.758 Y112.728 E0.56405
G1 X94.758 Y116.422 E0.11583
G1 X96.917 Y116.467 E0.06773
G1 X97.980 Y116.850 E0.03542
G1 X98.499 Y117.226 E0.02010
G1 X99.027 Y117.784 E0.02410
G1 X99.435 Y118.490 E0.02555
G1 X99.674 Y119.361 E0.02834
G1 X99.688 Y147.037 E0.86775
G1 X99.582 Y147.632 E0.01895
G1 X99.153 Y148.507 E0.03055
G1 X98.807 Y148.872 E0.01578
G1 F8640.000
G1 X99.153 Y148.507 E-0.11620
G1 X99.582 Y147.632 E-0.22495
G1 X99.688 Y147.037 E-0.13952
G1 X99.687 Y145.827 E-0.27932
G1 E-0.04000 F2100.00000
G1 Z0.800 F10800.000
G1 X118.758 Y78.243
G1 Z0.200
G1 E0.80000 F2100.00000
G1 F1200.000
G1 X118.758 Y97.726 E0.61087
G1 X118.781 Y98.012 E0.00899
G1 X118.823 Y98.176 E0.00532
G1 X118.969 Y98.447 E0.00965
G1 X119.089 Y98.578 E0.00558
G1 X119.351 Y98.750 E0.00984
G1 X120.094 Y99.035 E0.02493
G1 X120.776 Y99.530 E0.02643
G1 X121.403 Y100.365 E0.03274
G1 X121.740 Y101.398 E0.03406
G1 X121.757 Y116.426 E0.47122
G1 X124.067 Y116.467 E0.07243
G1 X125.130 Y116.850 E0.03541
G1 X125.173 Y116.881 E0.00167
G1 F8640.000
G1 X125.130 Y116.850 E-0.01233
G1 X124.067 Y116.467 E-0.26076
G1 X121.959 Y116.430 E-0.48691
G1 E-0.04000 F2100.00000
G1 Z0.800 F10800.000
G1 X88.747 Y78.263
G1 Z0.200
G1 E0.80000 F2100.00000
G1 F1200.000
G1 X88.747 Y97.727 E0.61029
G1 X88.724 Y98.011 E0.00895
G1 X88.682 Y98.176 E0.00532
G1 X88.536 Y98.447 E0.00965
G1 X88.416 Y98.578 E0.00558
G1 X88.153 Y98.750 E0.00983
G1 X87.411 Y99.035 E0.02493
G1 X86.728 Y99.530 E0.02643
G1 X86.102 Y100.365 E0.03273
G1 X85.765 Y101.398 E0.03406
G1 X85.748 Y116.433 E0.47142
G1 X84.684 Y116.427 E0.03334
G1 X84.463 Y116.455 E0.00700
G1 X83.630 Y116.452 E0.02611
G1 X82.929 Y116.608 E0.02252
G1 X82.474 Y116.847 E0.01612
G1 F8640.000
G1 X82.929 Y116.608 E-0.11872
G1 X83.630 Y116.452 E-0.16586
G1 X84.463 Y116.455 E-0.19230
G1 X84.684 Y116.427 E-0.05154
G1 X85.687 Y116.432 E-0.23158
G1 E-0.04000 F2100.00000
G1 Z0.800 F10800.000
G1 X117.518 Y70.615
G1 Z0.200
G1 E0.80000 F2100.00000
G1 F1200.000
G1 X117.843 Y70.859 E0.01275
G1 X118.031 Y71.087 E0.00925
G1 X118.526 Y71.981 E0.03206
G1 X118.705 Y72.871 E0.02844
G1 X118.758 Y73.676 E0.02530
G1 X118.758 Y75.941 E0.07102
G1 F8640.000
G1 X118.758 Y73.676 E-0.52304
G1 X118.705 Y72.871 E-0.18630
G1 X118.662 Y72.656 E-0.05066
G1 E-0.04000 F2100.00000
G1 Z0.800 F10800.000
G1 X88.747 Y75.913
G1 Z0.200
G1 E0.80000 F2100.00000
G1 F1200.000
G1 X88.747 Y73.683 E0.06992
G1 X88.802 Y72.859 E0.02588
G1 X88.977 Y71.984 E0.02798
G1 X89.472 Y71.090 E0.03205
G1 X89.715 Y70.808 E0.01166
G1 X90.005 Y70.592 E0.01134
G1 F8640.000
G1 X89.715 Y70.808 E-0.08349
G1 X89.472 Y71.090 E-0.08588
G1 X88.977 Y71.984 E-0.23603
G1 X88.802 Y72.859 E-0.20608
G1 X88.759 Y73.501 E-0.14852
G1 E-0.04000 F2100.00000
G1 Z0.800 F10800.000
G1 X115.930 Y69.868
G1 Z0.200
G1 E0.80000 F2100.00000
G1 F1200.000
G1 X91.567 Y69.868 E0.76391
G1 X90.957 Y70.063 E0.02006
G1 F8640.000
G1 X91.567 Y69.868 E-0.14776
G1 X94.218 Y69.868 E-0.61224
G1 E-0.04000 F2100.00000
G1 Z0.800 F10800.000
G1 X116.459 Y70.035
G1 Z0.200
G1 E0.80000 F2100.00000
G1 F1200.000
G1 X115.930 Y69.868 E0.01738
G1 F8640.000
G1 X116.459 Y70.035 E-0.12801
G1 E-0.67199 F2100.00000
G1 Z0.800 F10800.000
G1 X110.090 Y149.249
G1 Z0.200
G1 E0.80000 F2100.00000
M73 Q0 S130
G1 F1200.000
G1 X110.169 Y149.298 E0.00292
G1 X111.043 Y149.531 E0.02835
G1 X122.976 Y149.531 E0.37417
G1 X123.185 Y149.503 E0.00660
G1 X123.966 Y149.512 E0.02449
G1 X124.400 Y149.444 E0.01378
G1 X125.244 Y149.041 E0.02933
G1 X125.872 Y148.445 E0.02714
G1 X126.249 Y147.842 E0.02229
G1 X126.461 Y147.071 E0.02508
G1 X126.454 Y119.437 E0.86645
M73 P0 R129
G1 X126.228 Y118.614 E0.02674
G1 X125.864 Y117.996 E0.02251
G1 X125.714 Y117.840 E0.00677
G1 F8640.000
G1 X125.864 Y117.996 E-0.04986
G1 X126.228 Y118.614 E-0.16578
G1 X126.454 Y119.437 E-0.19691
G1 X126.454 Y120.941 E-0.34745
G1 E-0.04000 F2100.00000
G1 Z0.800 F10800.000
G1 X81.944 Y117.752
G1 Z0.200
G1 E0.80000 F2100.00000
G1 F1200.000
G1 X81.794 Y117.897 E0.00653
G1 X81.444 Y118.445 E0.02042
G1 X81.211 Y119.265 E0.02672
G1 X81.211 Y146.784 E0.86283
G1 X81.305 Y147.346 E0.01788
G1 X81.681 Y148.165 E0.02824
G1 X82.310 Y148.859 E0.02936
G1 X83.019 Y149.298 E0.02617
G1 X83.893 Y149.531 E0.02835
G1 X95.826 Y149.531 E0.37417
G1 X96.040 Y149.502 E0.00675
G1 X96.944 Y149.500 E0.02837
G1 X97.513 Y149.353 E0.01842
G1 X97.695 Y149.250 E0.00657
G1 F8640.000
G1 X97.513 Y149.353 E-0.04838
G1 X96.944 Y149.500 E-0.13564
G1 X96.040 Y149.502 E-0.20889
G1 X95.826 Y149.531 E-0.04971
G1 X94.452 Y149.531 E-0.31738
G1 E-0.04000 F2100.00000
G1 Z0.800 F10800.000
G1 X109.481 Y148.872
G1 Z0.200
G1 E0.80000 F2100.00000
G1 F1200.000
G1 X108.830 Y148.162 E0.03021
G1 X108.453 Y147.340 E0.02837
G1 X108.361 Y146.782 E0.01772
G1 X108.361 Y119.265 E0.86277
G1 X108.593 Y118.445 E0.02672
G1 X108.944 Y117.897 E0.02042
G1 X109.556 Y117.308 E0.02663
G1 X110.230 Y116.954 E0.02386
G1 X110.837 Y116.825 E0.01944
G1 X111.637 Y116.832 E0.02508
G1 X111.846 Y116.804 E0.00664
G1 X113.124 Y116.815 E0.04007
G1 X113.124 Y112.351 E0.13995
G1 X94.381 Y112.351 E0.58770
G1 X94.381 Y116.804 E0.13962
G1 X95.272 Y116.803 E0.02796
G1 X96.877 Y116.843 E0.05032
G1 X97.781 Y117.171 E0.03018
G1 X98.239 Y117.500 E0.01767
G1 X98.714 Y117.996 E0.02152
G1 X99.079 Y118.614 E0.02251
G1 X99.304 Y119.437 E0.02674
G1 X99.311 Y147.020 E0.86484
G1 X99.216 Y147.537 E0.01648
G1 X98.829 Y148.311 E0.02716
G1 X98.290 Y148.872 E0.02439
G1 F8640.000
G1 X98.829 Y148.311 E-0.17959
G1 X99.216 Y147.537 E-0.20000
G1 X99.311 Y147.020 E-0.12138
G1 X99.311 Y145.898 E-0.25903
G1 E-0.04000 F2100.00000
G1 Z0.800 F10800.000
G1 X118.381 Y75.972
G1 Z0.200
G1 E0.80000 F2100.00000
G1 F1200.000
G1 X118.381 Y97.742 E0.68257
G1 X118.408 Y98.074 E0.01045
G1 X118.463 Y98.291 E0.00703
G1 X118.553 Y98.497 E0.00703
G1 X118.675 Y98.685 E0.00703
G1 X118.826 Y98.850 E0.00703
G1 X119.003 Y98.988 E0.00703
G1 X119.202 Y99.097 E0.00710
G1 X119.897 Y99.358 E0.02328
G1 X120.493 Y99.781 E0.02291
G1 X121.082 Y100.565 E0.03076
G1 X121.372 Y101.483 E0.03017
G1 X121.381 Y116.811 E0.48062
G1 X122.422 Y116.803 E0.03265
G1 X124.026 Y116.843 E0.05033
G1 X124.931 Y117.171 E0.03018
G1 X125.260 Y117.407 E0.01270
G1 F8640.000
G1 X124.931 Y117.171 E-0.09354
G1 X124.026 Y116.843 E-0.22223
G1 X122.422 Y116.803 E-0.37061
G1 X122.103 Y116.806 E-0.07361
G1 E-0.04000 F2100.00000
G1 Z0.800 F10800.000
G1 X89.124 Y75.944
G1 Z0.200
G1 E0.80000 F2100.00000
G1 F1200.000
G1 X89.124 Y97.742 E0.68348
G1 X89.097 Y98.073 E0.01042
G1 X89.042 Y98.291 E0.00703
G1 X88.952 Y98.496 E0.00703
G1 X88.830 Y98.685 E0.00704
G1 X88.678 Y98.850 E0.00704
G1 X88.502 Y98.988 E0.00703
G1 X88.303 Y99.097 E0.00710
G1 X87.608 Y99.358 E0.02328
G1 X87.012 Y99.781 E0.02291
G1 X86.423 Y100.565 E0.03076
G1 X86.133 Y101.483 E0.03017
G1 X86.125 Y116.812 E0.48064
G1 X84.696 Y116.804 E0.04479
G1 X84.487 Y116.832 E0.00662
G1 X83.687 Y116.825 E0.02508
G1 X83.080 Y116.954 E0.01944
G1 X82.397 Y117.317 E0.02425
G1 F8640.000
G1 X83.080 Y116.954 E-0.17861
G1 X83.687 Y116.825 E-0.14318
G1 X84.487 Y116.832 E-0.18473
G1 X84.696 Y116.804 E-0.04877
G1 X85.583 Y116.809 E-0.20471
G1 E-0.04000 F2100.00000
G1 Z0.800 F10800.000
G1 X118.022 Y71.849
G1 Z0.200
G1 E0.80000 F2100.00000
G1 F1200.000
